resources/svg/connectivity.svg

<svg viewBox="0 0 24 24"><path fill="none" stroke="currentColor" stroke-linecap="round" stroke-linejoin="round" stroke-width="2" d="M6 8v4l3 3l6-6l-4-4H5L2.5 3M17 7l3 3v7m-7-6l3 3m-5-1l3 3m-7 1l3 3h10"/></svg>

<svg xmlns="http://www.w3.org/2000/svg" viewBox="0 0 24 24" fill="currentColor"><path fill="none" stroke="currentColor" stroke-linecap="round" stroke-linejoin="round" stroke-width="2" d="M6,8 L6,12 L9,15 L15,9 L11,5 L5,5 L2.5,3 M17,7 L20,10 L20,17 M13,11 L16,14 M11,13 L14,16 M7,17 L10,20 L20,20"/></svg>
